foodtherapy/img/home/ic.svg

<svg width="55" height="55" viewBox="0 0 55 55" fill="none" xmlns="http://www.w3.org/2000/svg">
<path d="M42.1121 24.5772C48.3443 24.3369 53 19.2111 53 12.445C53 11.4018 52.5847 10.4013 51.8452 9.66342C51.1061 8.92588 50.1036 8.51145 49.0581 8.51145H47.3983C47.5891 7.30259 47.7636 6.09325 47.9296 4.84294L48.0707 3.86586L48.0704 3.86549C48.1763 3.13238 47.9581 2.38927 47.4728 1.82851C46.9904 1.28987 46.2965 0.987461 45.5726 1.0004H10.7179C9.98062 0.990417 9.27711 1.30725 8.79617 1.86511C8.31565 2.42298 8.10782 3.16454 8.22822 3.89064C8.46903 5.43074 8.718 6.98798 8.98325 8.51143H6.94195C5.8965 8.51143 4.89392 8.92585 4.15443 9.6634C3.41532 10.4013 3 11.4017 3 12.445C3 19.2356 7.6969 24.3784 13.9714 24.5772C16.3688 28.3407 20.1144 31.0505 24.444 32.1544V39.2928H21.5894C20.7751 39.2928 19.9941 39.6156 19.418 40.1901C18.8422 40.7646 18.5188 41.5439 18.5188 42.3569C18.5118 42.8674 18.6344 43.3717 18.8756 43.8223H18.3028C16.7257 43.8245 15.2134 44.4508 14.0978 45.5639C12.9827 46.6771 12.3551 48.1858 12.3529 49.76V53.1719C12.3529 53.3915 12.4404 53.6022 12.596 53.7575C12.7516 53.9128 12.9627 54 13.1828 54H42.7178C42.9379 54 43.149 53.9128 43.3046 53.7575C43.4602 53.6022 43.5477 53.3915 43.5477 53.1719V49.76C43.5477 48.1854 42.9208 46.6748 41.8049 45.5614C40.689 44.4482 39.1756 43.8223 37.5974 43.8223H37.0332C37.2859 43.375 37.4203 42.8703 37.4233 42.3569C37.4211 41.5432 37.0958 40.7639 36.5186 40.1898C35.9414 39.6153 35.1597 39.2929 34.3446 39.2929H31.4649V32.2373C36.7676 31.2187 39.9129 28.1628 42.1119 24.5771L42.1121 24.5772ZM49.0663 10.1102C49.685 10.1102 50.2781 10.3553 50.7153 10.7919C51.1525 11.2282 51.3985 11.82 51.3985 12.4371C51.3985 18.0188 47.9793 22.1918 43.0998 22.8714C43.6807 21.77 44.1953 20.6354 44.6765 19.5094C45.7701 16.452 46.603 13.3078 47.1661 10.1103L49.0663 10.1102ZM4.60969 12.4456C4.60747 11.8271 4.85236 11.2331 5.28989 10.7946C5.72743 10.3565 6.32207 10.1103 6.94187 10.1103H9.23213C9.76377 13.2866 10.5377 16.4177 11.5476 19.4761C11.9055 20.6539 12.3779 21.7941 12.9584 22.8799C8.087 22.2255 4.60968 18.0435 4.60968 12.4457L4.60969 12.4456ZM37.5723 45.4292C38.7234 45.4292 39.8274 45.8854 40.6413 46.6976C41.4553 47.5098 41.9124 48.6115 41.9124 49.7601V52.3934H13.9954V49.7601C13.9954 48.6115 14.4526 47.5098 15.2665 46.6976C16.0805 45.8854 17.1845 45.4292 18.3355 45.4292H37.5723ZM34.3191 40.8994C34.727 40.8687 35.1286 41.0092 35.4283 41.2864C35.728 41.5637 35.8984 41.9534 35.8984 42.3611C35.8984 42.7689 35.728 43.1582 35.4283 43.4358C35.1286 43.713 34.727 43.8531 34.3191 43.8225H21.5893C21.0921 43.7851 20.6479 43.4986 20.4094 43.062C20.1711 42.625 20.1711 42.0971 20.4094 41.6602C20.648 41.2232 21.0922 40.9367 21.5893 40.8993L34.3191 40.8994ZM26.0204 39.2926V32.4692C26.7113 32.5612 27.4067 32.6111 28.1036 32.6181C28.7012 32.6181 29.2736 32.552 29.8215 32.4939V39.3093L26.0204 39.2926ZM30.7258 30.7301H30.6595C30.5472 30.7294 30.4364 30.7549 30.3357 30.8048C29.6014 30.9113 28.8619 30.9774 28.1202 31.0033C20.2446 31.0033 14.8422 24.8006 13.0829 18.9952C11.6387 14.9374 10.6429 9.22341 9.74673 3.64996C9.7056 3.38859 9.78118 3.12204 9.9542 2.92129C10.1298 2.72055 10.3843 2.60558 10.6514 2.60668H45.5062C45.77 2.59744 46.023 2.71426 46.1864 2.92129C46.3698 3.11316 46.4501 3.38083 46.4024 3.64183L46.2697 4.61891H46.2694C45.7492 9.49334 44.6889 14.296 43.1077 18.9373C40.867 24.2871 37.9625 29.5286 30.726 30.7296L30.7258 30.7301Z" fill="#008B77"/>
<path d="M36.3386 12.4884L31.4263 11.7947L29.2348 7.41839C29.0856 7.15998 28.8066 7 28.5041 7C28.2016 7 27.9227 7.15998 27.7735 7.41839L25.582 11.7947L20.6696 12.4884C20.3727 12.5489 20.132 12.762 20.0398 13.0458C19.9476 13.33 20.0181 13.6408 20.2246 13.859L23.7683 17.261L22.9286 22.0668H22.9282C22.9031 22.3573 23.0358 22.6396 23.2769 22.8088C23.5183 22.9784 23.8328 23.0101 24.1038 22.8925L28.5041 20.6384L32.8958 22.909C33.0112 22.9717 33.1417 23.0034 33.2737 22.9997C33.445 22.9993 33.6118 22.9474 33.7524 22.8512C34.0122 22.6598 34.1362 22.338 34.0714 22.0254L33.2317 17.2197L36.7754 13.8176C36.9819 13.5994 37.0524 13.2886 36.9602 13.0044C36.868 12.7206 36.6273 12.5075 36.3304 12.4471L36.3386 12.4884ZM31.7959 16.4106C31.607 16.5971 31.5196 16.8606 31.5609 17.1205L32.1907 20.7043L28.882 19.0529C28.6443 18.9353 28.3639 18.9353 28.1263 19.0529L24.8176 20.7043L25.4474 17.0878C25.4886 16.8275 25.4013 16.564 25.2123 16.3774L22.5421 13.8428L26.2369 13.3142C26.5038 13.2807 26.7347 13.1155 26.8498 12.8767L28.5292 9.57378L30.2087 12.8767C30.3237 13.1155 30.555 13.2807 30.8216 13.3142L34.5163 13.8428L31.7959 16.4106Z" fill="#008B77"/>
</svg>

<svg width="55" height="55" fill="none" xmlns="http://www.w3.org/2000/svg"><path d="M42.112 24.577C48.344 24.337 53 19.211 53 12.445a3.93 3.93 0 00-1.155-2.782 3.946 3.946 0 00-2.787-1.152h-1.66c.191-1.208.366-2.418.532-3.668l.14-.977a2.555 2.555 0 00-.597-2.037 2.491 2.491 0 00-1.9-.829H10.718a2.493 2.493 0 00-1.922.865 2.48 2.48 0 00-.568 2.026c.241 1.54.49 3.097.755 4.62H6.942a3.947 3.947 0 00-2.788 1.152A3.93 3.93 0 003 12.445c0 6.79 4.697 11.933 10.971 12.132a17.559 17.559 0 0010.473 7.577v7.139h-2.855c-.814 0-1.595.323-2.171.897a3.06 3.06 0 00-.9 2.167 3.02 3.02 0 00.358 1.465h-.573a5.966 5.966 0 00-4.205 1.742 5.94 5.94 0 00-1.745 4.196v3.412a.828.828 0 00.83.828h29.535a.83.83 0 00.83-.828V49.76a5.931 5.931 0 00-1.743-4.199 5.958 5.958 0 00-4.208-1.739h-.564c.253-.447.387-.952.39-1.465a3.068 3.068 0 00-.904-2.167 3.081 3.081 0 00-2.174-.897h-2.88v-7.056c5.303-1.018 8.448-4.074 10.647-7.66zm6.954-14.467a2.333 2.333 0 012.332 2.327c0 5.582-3.419 9.755-8.298 10.434a45.657 45.657 0 001.576-3.362 57.538 57.538 0 002.49-9.399h1.9zM4.61 12.446a2.326 2.326 0 012.332-2.336h2.29a63.08 63.08 0 002.316 9.366c.357 1.178.83 2.318 1.41 3.404-4.871-.654-8.348-4.836-8.348-10.434zm32.962 32.983c1.151 0 2.255.456 3.07 1.269a4.326 4.326 0 011.27 3.062v2.633H13.995V49.76c0-1.148.458-2.25 1.272-3.062a4.345 4.345 0 013.069-1.269h19.236zM34.32 40.9a1.47 1.47 0 011.58 1.462 1.465 1.465 0 01-1.58 1.462H21.59a1.464 1.464 0 010-2.923h12.73zm-8.299-1.606V32.47c.691.092 1.387.142 2.084.15.597 0 1.17-.067 1.718-.125v6.815l-3.802-.016zm4.706-8.563h-.066a.719.719 0 00-.324.075c-.735.106-1.474.172-2.216.198-7.875 0-13.278-6.202-15.037-12.008-1.444-4.058-2.44-9.772-3.336-15.345a.901.901 0 01.904-1.043h34.855a.83.83 0 01.68.314c.184.192.264.46.216.72l-.132.978a66.18 66.18 0 01-3.162 14.318c-2.241 5.35-5.145 10.592-12.382 11.793z" fill="#008B77"/><path d="M36.339 12.488l-4.913-.693-2.191-4.377a.843.843 0 00-.73-.418.843.843 0 00-.732.418l-2.191 4.377-4.912.693a.835.835 0 00-.63.558.815.815 0 00.185.813l3.543 3.402-.84 4.806a.82.82 0 00.349.742.85.85 0 00.827.083l4.4-2.254 4.392 2.271a.748.748 0 00.378.09.851.851 0 00.478-.148.819.819 0 00.32-.826l-.84-4.805 3.543-3.402a.815.815 0 00.185-.814.835.835 0 00-.63-.557l.009.041zm-4.543 3.923a.817.817 0 00-.235.71l.63 3.583-3.309-1.651a.853.853 0 00-.756 0l-3.308 1.651.63-3.616a.818.818 0 00-.236-.71l-2.67-2.535 3.695-.529a.788.788 0 00.613-.437l1.68-3.303 1.679 3.303a.789.789 0 00.613.437l3.694.529-2.72 2.568z" fill="#008B77"/></svg>
